X:27
T:Miss Isabella McPherson Grant's Strathspey -of Ballindalloch
R:strathspey
C:William Marshall
S:1822 Collection p51
Z:Paul Stewart Cranford (P.S.C.), <http://www.cranfordpub.com>
M:C
L:1/8
Q:222
K:F
a|c<cc>B A>c f2|dc d>fg>a|f>FA>F A<c f2|d>g f/e/d/c/ f2 f:|
||g|a>f a/g/f/e/ fc f2|b>g b/a/g/f/ e/f/g/a/ gf/g/|a>f a/g/f/e/ f>cd<f|c>f e/f/g/e/ f2 fg|
a>f a/g/f/e/ fc f2|b>a b/a/g/f/ e/f/g/a/ gf/g/|b/a/g/f/ g>e f>cd<f|c>f e/f/g/e/ f2 f|]
